packages/foundations/assets/icons/functional/images/transportation/electric_car_28.svg

<svg width="28" height="28" viewBox="0 0 28 28" fill="none" xmlns="http://www.w3.org/2000/svg">
<g clip-path="url(#clip0_187_905)">
<path fill-rule="evenodd" clip-rule="evenodd" d="M19.484 4.15903C20.2362 4.21864 20.9527 4.56571 21.4342 5.12751C21.7486 5.49446 21.706 6.04684 21.3391 6.36129C21.0004 6.65155 20.462 6.65155 20.1053 6.26622C19.9334 6.06565 19.6483 5.92754 19.362 5.90469C17.5327 5.75993 15.5995 5.68755 13.5625 5.68755C12.1042 5.68755 10.4763 5.75878 8.67901 5.90124C8.21141 5.95171 7.875 6.12505 7.7342 6.57706C7.35408 8.0302 6.97577 9.4837 6.59925 10.9375C9.3456 10.8496 11.2783 10.7959 12.3974 10.7767C13.5165 10.7575 14.6359 10.7587 15.7558 10.7803C15.75 9.62505 17.1149 8.31255 18.375 8.31255C18.375 7.81072 18.8135 7.43755 19.25 7.43755H21.875C22.3125 7.43755 22.75 7.87505 22.7427 8.31266C24.0154 8.31255 25.375 9.62505 25.375 10.9375C25.8125 10.9375 26.25 11.375 26.25 11.8125C26.25 12.1042 26.25 12.3959 26.25 12.6875C26.25 13.125 25.8125 13.5625 25.3741 13.5625C25.3747 15.0209 25.375 17.6459 25.375 21.4375C25.375 22.8079 24.0625 24.0626 22.75 24.0626H18.375C17.1154 24.0626 15.75 22.75 15.75 21.4375L15.7512 20.9913C14.8755 21.0099 14.0001 21.0128 13.125 21C12.25 21 10.9375 21 9.62449 20.9022C9.62483 20.9674 9.625 21.1458 9.625 21.4372C9.625 22.6296 8.84357 23.1875 7.875 23.1875H6.125C5.18046 23.1875 4.37443 22.6046 4.37443 21.4372C4.37443 20.6589 4.37443 19.9717 4.37443 19.3756C4.13076 19.0516 3.96469 18.6598 3.89225 18.2078C3.63856 16.5646 3.5085 15.016 3.50205 13.5618L2.625 13.5625C2.142 13.5625 1.75 13.1705 1.75 12.6875V11.8125C1.75 11.3287 2.142 10.9375 2.625 10.9375H4.7915L6.03848 6.14464C6.32034 5.01723 7.29342 4.29063 8.5311 4.15796C9.91187 4.01088 11.589 3.93741 13.5625 3.93755C16.5253 3.93734 16.5304 3.92495 19.484 4.15903ZM17.4996 21.4893C17.4996 21.9115 17.8173 22.2595 18.2262 22.307L18.3221 22.3125H22.8029C23.2242 22.3125 23.5716 21.995 23.619 21.5854L23.6246 21.4893L23.625 10.9375C23.625 10.5453 23.2478 10.127 22.8436 10.0693L22.75 10.0625H18.375C18.0091 10.0625 17.6192 10.3921 17.5226 10.7652L17.5058 10.851L17.5 10.958L17.4996 21.4893ZM6.12492 20.3993L6.125 21.4314L6.28572 21.4372L7.78361 21.4361L7.875 21.4314L7.8743 20.7303C7.37216 20.662 6.90069 20.5786 6.45471 20.478L6.12492 20.3993ZM14.4643 12.514L13.2909 12.5158L12.4888 12.5255L10.9463 12.5562L9.52583 12.5938L6.63764 12.6875C5.77475 12.6875 5.47164 12.8552 5.34825 13.1937C5.32784 13.2497 5.31063 13.3076 5.29656 13.3703L5.2778 13.4681L5.25841 13.6324L5.25261 13.7243L5.24873 13.9319L5.25062 14.0494L5.257 14.2179L5.35853 14.2256L7.10853 14.4443C7.58805 14.5042 7.92818 14.9416 7.86824 15.4211C7.81258 15.8663 7.43154 16.1914 6.99346 16.1876L6.89147 16.1808L5.4145 15.9959L5.60806 17.834C5.64757 18.2425 5.82044 18.4674 6.16112 18.5921L6.26839 18.6265C7.43765 18.9557 8.86482 19.1324 10.6762 19.2052L11.2648 19.225L11.8409 19.238L12.9494 19.2485L14.8116 19.2493L15.7491 19.2404V17.9375H10.7188C10.3267 17.9375 9.98725 17.6777 9.87924 17.3094L9.85566 17.2064L9.63691 15.8939C9.55746 15.4172 9.87948 14.9664 10.3562 14.887C10.7988 14.8132 11.2191 15.0856 11.3405 15.5065L11.3631 15.6062L11.4599 16.1875H15.7491V12.5292L15.5126 12.5255L14.4643 12.514ZM20.2174 13.1712C20.4335 12.739 20.9591 12.5638 21.3913 12.7799C21.7927 12.9806 22.0247 13.4731 21.7826 13.9539C21.5572 14.4087 21.3308 14.8616 21.1033 15.3125H21.4375C22.0537 15.3125 22.528 15.9602 22.2201 16.5789L20.9076 19.2039C20.6915 19.6361 20.1659 19.8113 19.7337 19.5952C19.3323 19.3945 19.1147 18.8813 19.3424 18.4212C19.5675 17.9664 19.7936 17.5135 20.0209 17.0625H19.6875C19.0713 17.0625 18.6012 16.4063 18.9049 15.7962L20.2174 13.1712Z" fill="#1A1C1F"/>
</g>
<defs>
<clipPath id="clip0_187_905">
<rect width="28" height="28" fill="white"/>
</clipPath>
</defs>
</svg>

<svg xmlns="http://www.w3.org/2000/svg" width="28" height="28" fill="none"><g clip-path="url(#a)"><path fill="#1A1C1F" fill-rule="evenodd" d="M19.484 4.159c.752.06 1.469.407 1.95.969a.875.875 0 0 1-.095 1.233.884.884 0 0 1-1.234-.095 1.12 1.12 0 0 0-.743-.361 74 74 0 0 0-5.8-.217q-2.187 0-4.883.213c-.468.05-.804.224-.945.676q-.57 2.18-1.135 4.36 4.12-.131 5.798-.16 1.68-.03 3.359.003c-.006-1.155 1.359-2.467 2.619-2.467 0-.502.439-.875.875-.875h2.625c.438 0 .875.437.868.875 1.272 0 2.632 1.312 2.632 2.624.438 0 .875.438.875.876v.874c0 .438-.437.876-.876.876l.001 7.874c0 1.37-1.312 2.626-2.625 2.626h-4.375c-1.26 0-2.625-1.313-2.625-2.625l.001-.447q-1.312.028-2.626.009c-.875 0-2.187 0-3.5-.098v.535c0 1.193-.781 1.75-1.75 1.75h-1.75c-.945 0-1.75-.582-1.75-1.75v-2.061a2.6 2.6 0 0 1-.483-1.168 31.4 31.4 0 0 1-.39-4.646h-.877a.875.875 0 0 1-.875-.874v-.876c0-.483.392-.874.875-.874h2.167l1.246-4.793C6.32 5.017 7.293 4.29 8.531 4.158q2.07-.22 5.031-.22c2.963 0 2.968-.013 5.922.221M17.5 21.489c0 .422.317.77.726.818l.096.006h4.48a.82.82 0 0 0 .817-.728l.006-.096V10.938c0-.393-.377-.811-.781-.869l-.094-.007h-4.375c-.366 0-.756.33-.852.703l-.017.086-.006.107zM6.125 20.4v1.032l.16.006h1.499l.091-.006v-.7a17 17 0 0 1-1.42-.253zm8.34-7.885-1.174.002-.802.01-1.543.03-1.42.038-2.888.094c-.863 0-1.166.167-1.29.506q-.03.084-.051.176l-.02.098-.019.164-.005.092-.004.208.002.117.006.169.102.008 1.75.218a.875.875 0 0 1-.116 1.744l-.102-.007-1.476-.185.193 1.838c.04.409.212.633.553.758l.107.035c1.17.329 2.597.505 4.408.578l.589.02.576.013 1.108.01 1.863.001.937-.009v-1.302h-5.03a.875.875 0 0 1-.84-.629l-.023-.103-.22-1.312a.875.875 0 0 1 1.705-.387l.022.1.097.58h4.29V12.53l-.237-.004zm5.752.657a.875.875 0 0 1 1.174-.391c.402.2.634.693.392 1.174q-.339.683-.68 1.358h.334c.617 0 1.091.648.783 1.267l-1.312 2.625a.875.875 0 1 1-1.566-.783q.339-.682.679-1.358h-.334c-.616 0-1.086-.657-.782-1.267z" clip-rule="evenodd"/></g><defs><clipPath id="a"><path fill="#fff" d="M0 0h28v28H0z"/></clipPath></defs></svg>
